X:1
T: The Bonnie Tree
C: Romaine Butterfield
%
P: Bonnie Glenfarclas
C: Frank Thomson
R: strathspey
B: RSCDS 46-6 p.13
Z: 2011 John Chambers <jc:trillian.mit.edu>
M: C
L: 1/8
K: F
|: c2 \
| "F"f2 c>A "A/F"F2 G>A | "Gm"B>A B>G "C7"E<C E<G \
| "F"F2 A>c "Dm"f>g a>f | "B/G"d<g g>f "C7"ec de |
| "F"f2 "Am"c>A "Dm"F2 G>A | "Gm"B>A B>G "C7"E<C D>E \
| "A/F"F2 A>c "Dm"f>g a>f | "Bb/Gm"d>g "C7"e<c "F"f2 f>g |
| "Dm"a>g a<f "C/Am"e2 a>e | "Bb"d2 f>d "A/F7"c>A F<A \
| "Gm"B>c d>B "Am"A<c "Dm"e>f | "G7"d<g g>f "C"e<c f>g |
| "Dm"a>g a<f "A7"e2 a>e | "Bb"d2 "Bdim"f>d "C/F"c>A "Dm"F<A \
| "Gm"B>c d>B "Am"A<c "Dm"f<a | "Gm"d>g "C7"e<c "F"f2 :|
